X: 42712
T: Whistling Postman, The
R: jig
M: 6/8
K: Dmajor
e|:~f3 edB|ABd BAF|DFA dfa|baf ede|
faf edB|ABd BAF|DFA Bed|cBc d2e:|
|:~f3 afd|gBd gfe|fef af/g/a|baf ede|
faf edB|ABd BAF|DFA Bed|cBc d2e:|

